icons/svgs/arrow-up-long-solid.svg

<svg width="24" height="24" viewBox="0 0 24 24" fill="none" xmlns="http://www.w3.org/2000/svg">
<path d="M13.3594 2.39062L18.3594 7.39062C18.8672 7.85938 18.8672 8.67969 18.3594 9.14844C17.8906 9.65625 17.0703 9.65625 16.6016 9.14844L13.75 6.29688V20.75C13.75 21.4531 13.1641 22 12.5 22C11.7969 22 11.25 21.4531 11.25 20.75V6.29688L8.35938 9.14844C7.89062 9.65625 7.07031 9.65625 6.60156 9.14844C6.09375 8.67969 6.09375 7.85938 6.60156 7.39062L11.6016 2.39062C12.0703 1.88281 12.8906 1.88281 13.3594 2.39062Z" fill="black"/>
</svg>

<svg xmlns="http://www.w3.org/2000/svg" width="24" height="24" fill="currentColor" class="icon-arrow-up-long-solid" viewBox="0 0 24 24">
  <mask id="a" width="13" height="20" x="6" y="2" maskUnits="userSpaceOnUse" style="mask-type:alpha">
    <path d="m13.36 2.39 5 5c.507.47.507 1.29 0 1.758a1.205 1.205 0 0 1-1.758 0L13.75 6.297V20.75c0 .703-.586 1.25-1.25 1.25-.703 0-1.25-.547-1.25-1.25V6.297L8.36 9.148a1.205 1.205 0 0 1-1.758 0 1.205 1.205 0 0 1 0-1.757l5-5a1.205 1.205 0 0 1 1.757 0"/>
  </mask>
  <g mask="url(#a)">
    <path d="M0 0h24v24H0z"/>
  </g>
</svg>
